dist/img/about-training/icon-1.svg

<svg width="54" height="52" viewBox="0 0 54 52" fill="none" xmlns="http://www.w3.org/2000/svg">
<path d="M28.5841 33.6471H25.5052V36.706H28.5841C29.4319 36.706 30.1235 36.0205 30.1235 35.1766C30.1236 34.3326 29.4321 33.6471 28.5841 33.6471ZM28.5841 39.7647H25.5052V42.8236H28.5841C29.4319 42.8236 30.1235 42.1381 30.1235 41.2942C30.1235 40.4503 29.4321 39.7647 28.5841 39.7647ZM27.0448 24.4706C19.3931 24.4706 13.1901 30.6333 13.1901 38.2353C13.1901 45.8373 19.3931 52 27.0448 52C34.6964 52 40.8994 45.8373 40.8994 38.2353C40.8994 30.6332 34.6964 24.4706 27.0448 24.4706ZM33.2023 41.294C33.2023 43.8241 31.1307 45.8823 28.5841 45.8823V47.4116C28.5841 48.2569 27.8955 48.941 27.0448 48.941C26.194 48.941 25.5054 48.2569 25.5054 47.4116V45.8823C25.2253 45.8823 22.6855 45.8823 22.4265 45.8823C21.5756 45.8823 20.8872 45.1982 20.8872 44.3527C20.8872 43.5075 21.5758 42.8234 22.4265 42.8234V33.6469C21.5756 33.6469 20.8872 32.9628 20.8872 32.1176C20.8872 31.2723 21.5758 30.5882 22.4265 30.5882H25.5054V29.0589C25.5054 28.2134 26.194 27.5295 27.0448 27.5295C27.8955 27.5295 28.5841 28.2136 28.5841 29.0589V30.5882C31.1307 30.5882 33.2023 32.6464 33.2023 35.1765C33.2023 36.3504 32.7574 37.4228 32.0238 38.2353C32.7574 39.0479 33.2023 40.1202 33.2023 41.294ZM47.0389 12.7565C47.4953 6.24172 42.0029 0 34.7418 0C30.5928 0 26.7742 2.07311 24.5193 5.42315C22.6191 3.90276 20.2648 3.05887 17.8085 3.05887C12.2132 3.05887 7.5979 7.32012 7.08074 12.7477C3.41868 14.0128 0.875 17.4794 0.875 21.4119C0.875 26.4721 5.01817 30.5884 10.1114 30.5884H11.9809C14.79 25.1494 20.4815 21.4118 27.0448 21.4118C33.608 21.4118 39.2996 25.1494 42.1086 30.5882H43.9781C49.0713 30.5882 53.2145 26.472 53.2145 21.4118C53.2147 17.4866 50.689 14.044 47.0389 12.7565Z" fill="#5994F8"/>
</svg>

<svg width="54" height="52" viewBox="0 0 54 52" fill="none" xmlns="http://www.w3.org/2000/svg"><path d="M28.584 33.647h-3.079v3.059h3.08c.847 0 1.538-.686 1.538-1.53 0-.843-.69-1.529-1.539-1.529zm0 6.118h-3.079v3.059h3.08c.847 0 1.538-.686 1.538-1.53s-.69-1.53-1.539-1.53zm-1.54-15.294c-7.65 0-13.854 6.162-13.854 13.764C13.19 45.837 19.393 52 27.045 52c7.651 0 13.854-6.163 13.854-13.765s-6.203-13.764-13.854-13.764zm6.158 16.823c0 2.53-2.071 4.588-4.618 4.588v1.53c0 .845-.689 1.529-1.54 1.529-.85 0-1.539-.684-1.539-1.53v-1.529h-3.078c-.851 0-1.54-.684-1.54-1.53 0-.844.689-1.529 1.54-1.529v-9.176c-.851 0-1.54-.684-1.54-1.53 0-.845.689-1.529 1.54-1.529h3.078v-1.53c0-.845.689-1.529 1.54-1.529.85 0 1.54.685 1.54 1.53v1.53c2.546 0 4.617 2.057 4.617 4.587a4.55 4.55 0 01-1.178 3.06 4.55 4.55 0 011.178 3.058zM47.04 12.757C47.495 6.242 42.003 0 34.742 0a12.324 12.324 0 00-10.223 5.423 10.728 10.728 0 00-6.71-2.364c-5.596 0-10.211 4.261-10.728 9.689C3.419 14.013.875 17.479.875 21.412c0 5.06 4.143 9.176 9.236 9.176h1.87c2.809-5.439 8.5-9.176 15.064-9.176 6.563 0 12.255 3.737 15.064 9.176h1.87c5.092 0 9.236-4.116 9.236-9.176 0-3.925-2.526-7.368-6.176-8.655z" fill="#5994F8"/></svg>
